X:92
T: Bei der Lind'n bin i's gsessn
N: D0124
O: Europa, Mitteleuropa, Deutschland, Oberbayern, Woernsmuehl
N: Zeilenwiederholung; zweistimmig ( parallele Terzen )
R: Liebes - Lied
M: 3/4
L: 1/8
K: G
DB | B2A2Dc | c2B2
DB | B2A2Dc | c2B2
B2 | cee2de | cBgd
dg | f2zcc2 | B4
B2 | cee2de | cBgd
dg | f2zcc2 | B4

